branches/nugui/src/gui/icons/style_individual.svg

<?xml version="1.0" encoding="UTF-8" standalone="no"?>
<!-- Created with Inkscape (http://www.inkscape.org/) -->

<svg
   xmlns:dc="http://purl.org/dc/elements/1.1/"
   xmlns:cc="http://creativecommons.org/ns#"
   xmlns:rdf="http://www.w3.org/1999/02/22-rdf-syntax-ns#"
   xmlns:svg="http://www.w3.org/2000/svg"
   xmlns="http://www.w3.org/2000/svg"
   xmlns:xlink="http://www.w3.org/1999/xlink"
   xmlns:inkscape="http://www.inkscape.org/namespaces/inkscape"
   version="1.0"
   width="100"
   height="100"
   id="svg2">
  <metadata
     id="metadata53">
    <rdf:RDF>
      <cc:Work
         rdf:about="">
        <dc:format>image/svg+xml</dc:format>
        <dc:type
           rdf:resource="http://purl.org/dc/dcmitype/StillImage" />
      </cc:Work>
    </rdf:RDF>
  </metadata>
  <defs
     id="defs4">
    <linearGradient
       id="linearGradient3613">
      <stop
         id="stop3615"
         style="stop-color:#690000;stop-opacity:1"
         offset="0" />
      <stop
         id="stop3617"
         style="stop-color:#ff0000;stop-opacity:0"
         offset="1" />
    </linearGradient>
    <linearGradient
       id="linearGradient3384">
      <stop
         id="stop3386"
         style="stop-color:#ff0000;stop-opacity:1"
         offset="0" />
      <stop
         id="stop3388"
         style="stop-color:#000000;stop-opacity:1"
         offset="1" />
    </linearGradient>
    <linearGradient
       id="linearGradient3252">
      <stop
         id="stop3254"
         style="stop-color:#ffffff;stop-opacity:1"
         offset="0" />
      <stop
         id="stop3256"
         style="stop-color:#ff0000;stop-opacity:0"
         offset="1" />
    </linearGradient>
    <radialGradient
       cx="58.01162"
       cy="63.345894"
       r="33.113495"
       fx="58.01162"
       fy="63.345894"
       id="radialGradient4841"
       xlink:href="#linearGradient3252"
       gradientUnits="userSpaceOnUse"
       gradientTransform="matrix(0.5123554,0,0,0.5123554,5.8419104,-9.1495697)" />
    <linearGradient
       x1="25.398125"
       y1="63.345894"
       x2="90.625114"
       y2="63.345894"
       id="linearGradient4844"
       xlink:href="#linearGradient3384"
       gradientUnits="userSpaceOnUse"
       gradientTransform="matrix(0.6454758,0.6454758,-0.6454758,0.6454758,50.065106,-43.741883)" />
    <linearGradient
       x1="40.687019"
       y1="39.968079"
       x2="73.02729"
       y2="39.968079"
       id="linearGradient3325"
       xlink:href="#linearGradient3613"
       gradientUnits="userSpaceOnUse"
       gradientTransform="translate(-54.38462,-11.019348)" />
    <linearGradient
       x1="25.398125"
       y1="63.345894"
       x2="90.625114"
       y2="63.345894"
       id="linearGradient3327"
       xlink:href="#linearGradient3384"
       gradientUnits="userSpaceOnUse" />
    <radialGradient
       cx="-89.470657"
       cy="6.2001209"
       r="33.767956"
       fx="-89.470657"
       fy="6.2001209"
       id="radialGradient3329"
       xlink:href="#linearGradient3252"
       gradientUnits="userSpaceOnUse"
       gradientTransform="matrix(1,0,0,0.1880342,151.36789,55.8298)" />
  </defs>
  <path
     d="m 41.445611,68.84699 c 0.0016,9.312402 -7.547107,16.862461 -16.85951,16.862461 -9.312402,0 -16.8611388,-7.550059 -16.8595084,-16.862461 -0.00163,-9.312402 7.5471064,-16.862461 16.8595084,-16.862461 9.312403,0 16.86114,7.550059 16.85951,16.862461 l 0,0 z"
     inkscape:connector-curvature="0"
     id="path3472"
     style="fill:#282828;fill-opacity:1;fill-rule:evenodd;stroke:none" />
  <path
     d="m 82.71685,41.400842 c 0.003,17.410049 -14.109729,31.525299 -31.519779,31.525299 -17.410049,0 -31.522827,-14.11525 -31.519779,-31.525299 -0.003,-17.410049 14.10973,-31.5252985 31.519779,-31.5252985 17.41005,0 31.522828,14.1152495 31.519779,31.5252985 l 0,0 z"
     inkscape:connector-curvature="0"
     id="path3289"
     style="fill:#282828;fill-opacity:1;fill-rule:evenodd;stroke:none" />
  <g
     transform="matrix(1.0587437,0,0,1.0587437,-0.1652447,-0.2625566)"
     id="g2338">
    <path
       d="m 76.084191,34.702089 c 0.0029,16.444064 -13.326861,29.776139 -29.770926,29.776139 -16.444064,0 -29.773803,-13.332075 -29.770924,-29.776139 -0.0029,-16.444064 13.32686,-29.7761385 29.770924,-29.7761385 16.444065,0 29.773805,13.3320745 29.770926,29.7761385 l 0,0 z"
       inkscape:connector-curvature="0"
       id="path2277"
       style="fill:#ff0000;fill-rule:evenodd;stroke:#000000;stroke-width:0.91284072px;stroke-linecap:butt;stroke-linejoin:miter;stroke-opacity:1" />
    <g
       id="g2334">
      <path
         d="M 67.673182,55.642677 C 56.04751,67.272421 37.194761,67.274072 25.567052,55.646363 13.939344,44.018655 13.940995,25.165906 25.570739,13.540234 37.196412,1.9104906 56.04916,1.9088386 67.676869,13.536547 c 11.627709,11.627709 11.626057,30.480457 -0.0037,42.10613 l 0,0 z"
         inkscape:connector-curvature="0"
         id="path3262"
         style="opacity:0.71739131;fill:url(#linearGradient4844);fill-opacity:1;fill-rule:evenodd;stroke:none" />
      <path
         d="m 52.274178,23.30604 c 0.0016,9.229656 -7.480045,16.712627 -16.709701,16.712627 -9.229655,0 -16.711315,-7.482971 -16.7097,-16.712627 -0.0016,-9.229655 7.480045,-16.7126255 16.7097,-16.7126255 9.229656,0 16.711317,7.4829705 16.709701,16.7126255 l 0,0 z"
         inkscape:connector-curvature="0"
         id="path2279"
         style="fill:url(#radialGradient4841);fill-opacity:1;fill-rule:evenodd;stroke:none" />
    </g>
  </g>
  <use
     transform="matrix(0.548951,0,0,0.548951,-6.4454209,45.458284)"
     id="use2344"
     x="0"
     y="0"
     width="100"
     height="100"
     xlink:href="#g2338" />
  <path
     d="m 38.847986,69.299375 c -3.901696,0 -7.050928,5.322341 -7.050928,11.867899 0,6.54556 3.149232,11.867898 7.050928,11.867898 0.160056,0 0.331266,-0.02894 0.488678,-0.04654 l 51.590451,0 c 1.80929,-10e-7 3.553865,-1.362521 4.933326,-3.676722 2.758918,-4.62841 2.758918,-12.149542 0,-16.77795 -1.379461,-2.314204 -3.124036,-3.234584 -4.933326,-3.234584 -0.468395,-10e-7 -0.901232,-0.02078 -1.442763,0 l -50.287311,0 0,0.02327 c -0.112703,-0.009 -0.235035,-0.02327 -0.349055,-0.02327 z"
     inkscape:connector-curvature="0"
     id="path4632"
     style="fill:#282828;fill-opacity:1;fill-rule:evenodd;stroke:none" />
  <g
     transform="matrix(0.7446524,0,0,0.7446524,24.396776,42.035987)"
     id="g4619">
    <g
       transform="matrix(0,1,-1,0,84.157958,45.676714)"
       id="g3627">
      <path
         d="m 18.392668,-1.0573579 c 0,-2.42971 -1.83342,-4.798937 -4.94118,-6.651423 -6.2155301,-3.7049721 -16.3157212,-3.7049721 -22.5312493,0 -3.1077647,1.852486 -4.3676347,4.221713 -4.3676347,6.651423 0,0.629011 -0.004,1.18385 0.02388,1.91107695 l 0,67.53125295 31.812499,0 0.0037,-69.4423299 z"
         inkscape:connector-curvature="0"
         id="path3579"
         style="fill:#ff0000;fill-opacity:1;fill-rule:evenodd;stroke:#000000;stroke-width:0.5;stroke-linecap:round;stroke-linejoin:round;stroke-miterlimit:4;stroke-opacity:1;stroke-dasharray:none;stroke-dashoffset:2.63393869" />
      <path
         d="m 18.392671,-1.0573583 c 0,-2.42971 -1.83342,-4.798937 -4.94118,-6.6514229 -6.2155314,-3.7049718 -16.3157214,-3.7049718 -22.5312503,0 -3.1077697,1.8524859 -4.3676397,4.2217129 -4.3676397,6.6514229 0,0.62901156 -0.004,1.18385056 0.02389,1.91107756 l 0,67.53125074 31.8125,0 0.0037,-69.4423283 z"
         inkscape:connector-curvature="0"
         id="path3591"
         style="fill:url(#linearGradient3325);fill-opacity:1;fill-rule:evenodd;stroke:none" />
      <g
         transform="translate(14.142136,-1.4430751)"
         id="g3621">
        <path
           d="M 90.625114,63.345894 C 90.628268,81.36006 76.025786,95.9651 58.011619,95.9651 c -18.014166,0 -32.616648,-14.60504 -32.613494,-32.619206 -0.0032,-18.014166 14.599328,-32.619206 32.613494,-32.619206 18.014167,0 32.616649,14.60504 32.613495,32.619206 z"
           inkscape:connector-curvature="0"
           transform="matrix(0,-0.2910472,0.4882663,0,-42.57093,87.178008)"
           id="path4873"
           style="fill:#ff0000;fill-rule:evenodd;stroke:#000000;stroke-width:1px;stroke-linecap:butt;stroke-linejoin:miter;stroke-opacity:1" />
        <path
           d="M 90.625114,63.345894 C 90.628268,81.36006 76.025786,95.9651 58.011619,95.9651 c -18.014166,0 -32.616648,-14.60504 -32.613494,-32.619206 -0.0032,-18.014166 14.599328,-32.619206 32.613494,-32.619206 18.014167,0 32.616649,14.60504 32.613495,32.619206 z"
           inkscape:connector-curvature="0"
           transform="matrix(0.3452564,-0.2058015,0.3452564,0.2058015,-53.442293,69.13691)"
           id="path4875"
           style="opacity:0.71739131;fill:url(#linearGradient3327);fill-opacity:1;fill-rule:evenodd;stroke:#000000;stroke-width:1px;stroke-linecap:butt;stroke-linejoin:miter;stroke-opacity:1" />
      </g>
    </g>
    <rect
       width="67.535912"
       height="12.69906"
       x="28.129282"
       y="50.646103"
       id="rect3640"
       style="fill:url(#radialGradient3329);fill-opacity:1;fill-rule:evenodd;stroke:none" />
  </g>
</svg>

<?xml version="1.0" encoding="UTF-8" standalone="no"?>
<!-- Created with Inkscape (http://www.inkscape.org/) -->
<svg
   xmlns:dc="http://purl.org/dc/elements/1.1/"
   xmlns:cc="http://web.resource.org/cc/"
   xmlns:rdf="http://www.w3.org/1999/02/22-rdf-syntax-ns#"
   xmlns:svg="http://www.w3.org/2000/svg"
   xmlns="http://www.w3.org/2000/svg"
   xmlns:xlink="http://www.w3.org/1999/xlink"
   xmlns:sodipodi="http://sodipodi.sourceforge.net/DTD/sodipodi-0.dtd"
   xmlns:inkscape="http://www.inkscape.org/namespaces/inkscape"
   version="1.0"
   width="100"
   height="100"
   id="svg2"
   sodipodi:version="0.32"
   inkscape:version="0.45.1"
   sodipodi:docname="style_individual.svg"
   inkscape:output_extension="org.inkscape.output.svg.inkscape"
   sodipodi:docbase="/home/tris/src/aten/src/gui-qt/icons">
  <metadata
     id="metadata53">
    <rdf:RDF>
      <cc:Work
         rdf:about="">
        <dc:format>image/svg+xml</dc:format>
        <dc:type
           rdf:resource="http://purl.org/dc/dcmitype/StillImage" />
      </cc:Work>
    </rdf:RDF>
  </metadata>
  <sodipodi:namedview
     inkscape:window-height="621"
     inkscape:window-width="776"
     inkscape:pageshadow="2"
     inkscape:pageopacity="0.0"
     guidetolerance="10.0"
     gridtolerance="10.0"
     objecttolerance="10.0"
     borderopacity="1.0"
     bordercolor="#666666"
     pagecolor="#ffffff"
     id="base"
     inkscape:zoom="4.07"
     inkscape:cx="50.123408"
     inkscape:cy="49.5444"
     inkscape:window-x="0"
     inkscape:window-y="29"
     inkscape:current-layer="svg2" />
  <defs
     id="defs4">
    <radialGradient
       cx="-89.470657"
       cy="6.2001209"
       r="33.767956"
       fx="-89.470657"
       fy="6.2001209"
       id="radialGradient4617"
       xlink:href="#linearGradient3252"
       gradientUnits="userSpaceOnUse"
       gradientTransform="matrix(1,0,0,0.1880342,151.36789,55.8298)" />
    <linearGradient
       x1="25.398125"
       y1="63.345894"
       x2="90.625114"
       y2="63.345894"
       id="linearGradient3636"
       xlink:href="#linearGradient3384"
       gradientUnits="userSpaceOnUse" />
    <linearGradient
       id="linearGradient3613">
      <stop
         style="stop-color:#690000;stop-opacity:1"
         offset="0"
         id="stop3615" />
      <stop
         style="stop-color:#ff0000;stop-opacity:0"
         offset="1"
         id="stop3617" />
    </linearGradient>
    <linearGradient
       x1="40.687019"
       y1="39.968079"
       x2="73.02729"
       y2="39.968079"
       id="linearGradient3634"
       xlink:href="#linearGradient3613"
       gradientUnits="userSpaceOnUse"
       gradientTransform="translate(-54.38462,-11.019348)" />
    <linearGradient
       id="linearGradient3384">
      <stop
         style="stop-color:#ff0000;stop-opacity:1"
         offset="0"
         id="stop3386" />
      <stop
         style="stop-color:#000000;stop-opacity:1"
         offset="1"
         id="stop3388" />
    </linearGradient>
    <linearGradient
       id="linearGradient3252">
      <stop
         style="stop-color:#ffffff;stop-opacity:1"
         offset="0"
         id="stop3254" />
      <stop
         style="stop-color:#ff0000;stop-opacity:0"
         offset="1"
         id="stop3256" />
    </linearGradient>
    <radialGradient
       cx="58.01162"
       cy="63.345894"
       r="33.113495"
       fx="58.01162"
       fy="63.345894"
       id="radialGradient4834"
       xlink:href="#linearGradient3252"
       gradientUnits="userSpaceOnUse"
       gradientTransform="matrix(0.2740521,0,0,0.2740521,-2.417203,38.526646)" />
    <linearGradient
       x1="25.398125"
       y1="63.345894"
       x2="90.625114"
       y2="63.345894"
       id="linearGradient4837"
       xlink:href="#linearGradient3384"
       gradientUnits="userSpaceOnUse"
       gradientTransform="matrix(0.3452564,0.3452564,-0.3452564,0.3452564,21.237198,20.023678)" />
    <radialGradient
       cx="58.01162"
       cy="63.345894"
       r="33.113495"
       fx="58.01162"
       fy="63.345894"
       id="radialGradient4841"
       xlink:href="#linearGradient3252"
       gradientUnits="userSpaceOnUse"
       gradientTransform="matrix(0.5123554,0,0,0.5123554,5.8419104,-9.1495697)" />
    <linearGradient
       x1="25.398125"
       y1="63.345894"
       x2="90.625114"
       y2="63.345894"
       id="linearGradient4844"
       xlink:href="#linearGradient3384"
       gradientUnits="userSpaceOnUse"
       gradientTransform="matrix(0.6454758,0.6454758,-0.6454758,0.6454758,50.065106,-43.741883)" />
    <linearGradient
       inkscape:collect="always"
       xlink:href="#linearGradient3613"
       id="linearGradient3325"
       gradientUnits="userSpaceOnUse"
       gradientTransform="translate(-54.38462,-11.019348)"
       x1="40.687019"
       y1="39.968079"
       x2="73.02729"
       y2="39.968079" />
    <linearGradient
       inkscape:collect="always"
       xlink:href="#linearGradient3384"
       id="linearGradient3327"
       gradientUnits="userSpaceOnUse"
       x1="25.398125"
       y1="63.345894"
       x2="90.625114"
       y2="63.345894" />
    <radialGradient
       inkscape:collect="always"
       xlink:href="#linearGradient3252"
       id="radialGradient3329"
       gradientUnits="userSpaceOnUse"
       gradientTransform="matrix(1,0,0,0.1880342,151.36789,55.8298)"
       cx="-89.470657"
       cy="6.2001209"
       fx="-89.470657"
       fy="6.2001209"
       r="33.767956" />
  </defs>
  <path
     d="M 41.445611,68.84699 C 41.447241,78.159392 33.898504,85.709451 24.586101,85.709451 C 15.273699,85.709451 7.7249622,78.159392 7.7265926,68.84699 C 7.7249622,59.534588 15.273699,51.984529 24.586101,51.984529 C 33.898504,51.984529 41.447241,59.534588 41.445611,68.84699 L 41.445611,68.84699 z "
     style="fill:#282828;fill-opacity:1;fill-rule:evenodd;stroke:none;stroke-width:1px;stroke-linecap:butt;stroke-linejoin:miter;stroke-opacity:1"
     id="path3472" />
  <path
     d="M 82.71685,41.400842 C 82.719899,58.810891 68.607121,72.926141 51.197071,72.926141 C 33.787022,72.926141 19.674244,58.810891 19.677292,41.400842 C 19.674244,23.990793 33.787022,9.8755435 51.197071,9.8755435 C 68.607121,9.8755435 82.719899,23.990793 82.71685,41.400842 L 82.71685,41.400842 z "
     style="fill:#282828;fill-opacity:1;fill-rule:evenodd;stroke:none;stroke-width:1px;stroke-linecap:butt;stroke-linejoin:miter;stroke-opacity:1"
     id="path3289" />
  <g
     id="g2338"
     transform="matrix(1.0587437,0,0,1.0587437,-0.1652447,-0.2625566)">
    <path
       id="path2277"
       style="fill:#ff0000;fill-rule:evenodd;stroke:#000000;stroke-width:0.91284072px;stroke-linecap:butt;stroke-linejoin:miter;stroke-opacity:1"
       d="M 76.084191,34.702089 C 76.08707,51.146153 62.75733,64.478228 46.313265,64.478228 C 29.869201,64.478228 16.539462,51.146153 16.542341,34.702089 C 16.539462,18.258025 29.869201,4.9259505 46.313265,4.9259505 C 62.75733,4.9259505 76.08707,18.258025 76.084191,34.702089 L 76.084191,34.702089 z " />
    <g
       id="g2334">
      <path
         d="M 67.673182,55.642677 C 56.04751,67.272421 37.194761,67.274072 25.567052,55.646363 C 13.939344,44.018655 13.940995,25.165906 25.570739,13.540234 C 37.196412,1.9104906 56.04916,1.9088386 67.676869,13.536547 C 79.304578,25.164256 79.302926,44.017004 67.673182,55.642677 L 67.673182,55.642677 z "
         style="opacity:0.71739131;fill:url(#linearGradient4844);fill-opacity:1;fill-rule:evenodd;stroke:none;stroke-width:1px;stroke-linecap:butt;stroke-linejoin:miter;stroke-opacity:1"
         id="path3262" />
      <path
         d="M 52.274178,23.30604 C 52.275794,32.535696 44.794133,40.018667 35.564477,40.018667 C 26.334822,40.018667 18.853162,32.535696 18.854777,23.30604 C 18.853162,14.076385 26.334822,6.5934145 35.564477,6.5934145 C 44.794133,6.5934145 52.275794,14.076385 52.274178,23.30604 L 52.274178,23.30604 z "
         style="fill:url(#radialGradient4841);fill-opacity:1;fill-rule:evenodd;stroke:none;stroke-width:1px;stroke-linecap:butt;stroke-linejoin:miter;stroke-opacity:1"
         id="path2279" />
    </g>
  </g>
  <use
     x="0"
     y="0"
     xlink:href="#g2338"
     id="use2344"
     transform="matrix(0.548951,0,0,0.548951,-6.4454209,45.458284)"
     width="100"
     height="100" />
  <path
     id="path4632"
     style="fill:#282828;fill-opacity:1;fill-rule:evenodd;stroke:none;stroke-width:0.5;stroke-linecap:round;stroke-linejoin:round;stroke-miterlimit:4;stroke-dasharray:none;stroke-dashoffset:2.63393869;stroke-opacity:1"
     d="M 38.847986,69.299375 C 34.94629,69.299375 31.797058,74.621716 31.797058,81.167274 C 31.797058,87.712834 34.94629,93.035172 38.847986,93.035172 C 39.008042,93.035172 39.179252,93.006228 39.336664,92.988631 L 90.927115,92.988631 C 92.736405,92.98863 94.48098,91.62611 95.860441,89.311909 C 98.619359,84.683499 98.619359,77.162367 95.860441,72.533959 C 94.48098,70.219755 92.736405,69.299375 90.927115,69.299375 C 90.45872,69.299374 90.025883,69.2786 89.484352,69.299375 L 39.197041,69.299375 L 39.197041,69.322645 C 39.084338,69.313674 38.962006,69.299375 38.847986,69.299375 z " />
  <g
     id="g4619"
     transform="matrix(0.7446524,0,0,0.7446524,24.396776,42.035987)">
    <g
       id="g3627"
       transform="matrix(0,1,-1,0,84.157958,45.676714)">
      <path
         id="path3579"
         style="opacity:1;fill:#ff0000;fill-opacity:1;fill-rule:evenodd;stroke:#000000;stroke-width:0.5;stroke-linecap:round;stroke-linejoin:round;stroke-miterlimit:4;stroke-dasharray:none;stroke-dashoffset:2.63393869;stroke-opacity:1"
         d="M 18.392668,-1.0573579 C 18.392668,-3.4870679 16.559248,-5.8562949 13.451488,-7.7087809 C 7.2359579,-11.413753 -2.8642332,-11.413753 -9.0797613,-7.7087809 C -12.187526,-5.8562949 -13.447396,-3.4870679 -13.447396,-1.0573579 C -13.447396,-0.4283469 -13.451411,0.1264921 -13.423511,0.85371905 L -13.423511,68.384972 L 18.388988,68.384972 L 18.392668,-1.0573579 z " />
      <path
         id="path3591"
         style="opacity:1;fill:url(#linearGradient3325);fill-opacity:1;fill-rule:evenodd;stroke:none;stroke-width:0.5;stroke-linecap:round;stroke-linejoin:round;stroke-miterlimit:4;stroke-dasharray:none;stroke-dashoffset:2.63393869;stroke-opacity:1"
         d="M 18.392671,-1.0573583 C 18.392671,-3.4870683 16.559251,-5.8562953 13.451491,-7.7087812 C 7.2359596,-11.413753 -2.8642304,-11.413753 -9.0797593,-7.7087812 C -12.187529,-5.8562953 -13.447399,-3.4870683 -13.447399,-1.0573583 C -13.447399,-0.42834674 -13.451409,0.12649226 -13.423509,0.85371926 L -13.423509,68.38497 L 18.388991,68.38497 L 18.392671,-1.0573583 z " />
      <g
         id="g3621"
         transform="translate(14.142136,-1.4430751)">
        <path
           id="path4873"
           style="fill:#ff0000;fill-rule:evenodd;stroke:#000000;stroke-width:1px;stroke-linecap:butt;stroke-linejoin:miter;stroke-opacity:1"
           transform="matrix(0,-0.2910472,0.4882663,0,-42.57093,87.178008)"
           d="M 90.625114,63.345894 C 90.628268,81.36006 76.025786,95.9651 58.011619,95.9651 C 39.997453,95.9651 25.394971,81.36006 25.398125,63.345894 C 25.394971,45.331728 39.997453,30.726688 58.011619,30.726688 C 76.025786,30.726688 90.628268,45.331728 90.625114,63.345894 z " />
        <path
           id="path4875"
           style="opacity:0.71739131;fill:url(#linearGradient3327);fill-opacity:1;fill-rule:evenodd;stroke:#000000;stroke-width:1px;stroke-linecap:butt;stroke-linejoin:miter;stroke-opacity:1"
           transform="matrix(0.3452564,-0.2058015,0.3452564,0.2058015,-53.442293,69.13691)"
           d="M 90.625114,63.345894 C 90.628268,81.36006 76.025786,95.9651 58.011619,95.9651 C 39.997453,95.9651 25.394971,81.36006 25.398125,63.345894 C 25.394971,45.331728 39.997453,30.726688 58.011619,30.726688 C 76.025786,30.726688 90.628268,45.331728 90.625114,63.345894 z " />
      </g>
    </g>
    <rect
       id="rect3640"
       style="opacity:1;fill:url(#radialGradient3329);fill-opacity:1;fill-rule:evenodd;stroke:none;stroke-width:0.50199997;stroke-linecap:round;stroke-linejoin:round;stroke-miterlimit:4;stroke-dasharray:none;stroke-dashoffset:2.63393869;stroke-opacity:1"
       y="50.646103"
       x="28.129282"
       height="12.69906"
       width="67.535912" />
  </g>
</svg>
